X: 0181
M: 2/4
L: 1/16
K: Eb
V: 1
K: F
|:"FIRST CORNOPEAN""or BUGLE in Bb"!p!\
f2cc c2c2 | .c2(a2g2).f2 | .c2(g2f2).e2 | (f2e)>d c2cc |\
f2cc c2c2 | .c2(a2g2).f2 | .c2(g2f2).e2 | f4 z4 :|
|:!ff!\
g2gg .g2.f2 | .e2.f2 g3e | f3e f3d | "_>"(a4 g2)^f2 |\
g2gg g2=f2 | e2f2 g3e | (d2a2) .g2=B2 | c4 z4 :|
|:!p!\
f2cc c2c2 | .c2(a2g2).f2 | .c2(g2f2).e2 | (f2e)>d c2cc |!ff!\
f2cc c2c2 | .c2(a2g2).f2 | .c2(g2f2).e2 | f4 z4 "_FINE"H:|
|:!pp!\
z2B2 z2B2 | z2BB B2B2 | z2B2 z2B2 | z2BB B2B2 |\
z2c2 z2A2 | z2B2 "^>"B4 | z2FF =E2_E2 | "_D.C. AL FINE"D4 z4 :|
V: 2
K: F
|:"SECOND CORNOPEAN""or BUGLE in Bb"!p!\
|:!ff!\
e2ee .e2.d2 | .c2.d2 e3c | d3c d3=B | "_>"(f4 e2)^d2 |\
e2ee e2=d2 | c2d2 e3c | d3F D2D2 | E4 z4 :|
|:!p!\
|:!pp!\
z2D2 z2D2 | z2DD D2D2 | z2D2 z2D2 | z2DD D2D2 |\
z2F2 z2F2 | z2F2 "^>"G4 | z2DD C2C2 | "_D.C. AL FINE"D4 z4 :|
V: 3 clef=bass middle=D
K: Eb
|:"TROMBONE"!p!\
|:!ff!\
|:!p!\
|:"^SOLO"!pp!\
E6 c2 | A2EE E2E2 | E6 c2 | A2EE E2E2 |\
.E2_d2c2.B2 | =B2c2 A2F2 | E2EE F2G2 | "_D.C. AL FINE"A4 z4 :|
V: 4 clef=bass middle=d
K: Eb
|:"OPHICLEIDE"!p!\
e4 e2e2 | e4 z2e2 | d2z2 B2z2 | e2E2 e4 |\
e2ee e2e2 | e2e2e2e2 | b2z2 B2B2 | e4 z4 :|
|:!ff!\
|:!p!\
e4 e2e2 | e4 z2e2 | d2z2 B2z2 | e2E2 e4 |!ff!\
e2ee e2e2 | e2e2e2e2 | b2z2 B2B2 | e4 z4 H:|
|:!pp!\


